groups/bicyclics/norbornyl.svg

<?xml version='1.0' encoding='iso-8859-1'?>
<svg version='1.1' baseProfile='full'
              xmlns='http://www.w3.org/2000/svg'
                      xmlns:rdkit='http://www.rdkit.org/xml'
                      xmlns:xlink='http://www.w3.org/1999/xlink'
                  xml:space='preserve'
width='256px' height='256px' viewBox='0 0 256 256'>
<!-- END OF HEADER -->
<rect style='opacity:1.0;fill:#FFFFFF;stroke:none' width='256.0' height='256.0' x='0.0' y='0.0'> </rect>
<path class='bond-0 atom-0 atom-1' d='M 35.3,70.6 L 97.2,115.7' style='fill:none;fill-rule:evenodd;stroke:#000000;stroke-width:2.0px;stroke-linecap:butt;stroke-linejoin:miter;stroke-opacity:1' />
<path class='bond-1 atom-1 atom-2' d='M 97.2,115.7 L 97.1,192.2' style='fill:none;fill-rule:evenodd;stroke:#000000;stroke-width:2.0px;stroke-linecap:butt;stroke-linejoin:miter;stroke-opacity:1' />
<path class='bond-2 atom-2 atom-3' d='M 97.1,192.2 L 169.9,215.9' style='fill:none;fill-rule:evenodd;stroke:#000000;stroke-width:2.0px;stroke-linecap:butt;stroke-linejoin:miter;stroke-opacity:1' />
<path class='bond-3 atom-3 atom-4' d='M 169.9,215.9 L 242.7,192.3' style='fill:none;fill-rule:evenodd;stroke:#000000;stroke-width:2.0px;stroke-linecap:butt;stroke-linejoin:miter;stroke-opacity:1' />
<path class='bond-4 atom-4 atom-5' d='M 242.7,192.3 L 242.8,115.8' style='fill:none;fill-rule:evenodd;stroke:#000000;stroke-width:2.0px;stroke-linecap:butt;stroke-linejoin:miter;stroke-opacity:1' />
<path class='bond-5 atom-5 atom-6' d='M 242.8,115.8 L 170.0,92.1' style='fill:none;fill-rule:evenodd;stroke:#000000;stroke-width:2.0px;stroke-linecap:butt;stroke-linejoin:miter;stroke-opacity:1' />
<path class='bond-6 atom-6 atom-7' d='M 170.0,92.1 L 215.0,154.0' style='fill:none;fill-rule:evenodd;stroke:#000000;stroke-width:2.0px;stroke-linecap:butt;stroke-linejoin:miter;stroke-opacity:1' />
<path class='bond-7 atom-6 atom-1' d='M 170.0,92.1 L 97.2,115.7' style='fill:none;fill-rule:evenodd;stroke:#000000;stroke-width:2.0px;stroke-linecap:butt;stroke-linejoin:miter;stroke-opacity:1' />
<path class='bond-8 atom-7 atom-3' d='M 215.0,154.0 L 169.9,215.9' style='fill:none;fill-rule:evenodd;stroke:#000000;stroke-width:2.0px;stroke-linecap:butt;stroke-linejoin:miter;stroke-opacity:1' />
<path d='M 97.1,188.4 L 97.1,192.2 L 100.8,193.4' style='fill:none;stroke:#000000;stroke-width:2.0px;stroke-linecap:butt;stroke-linejoin:miter;stroke-miterlimit:10;stroke-opacity:1;' />
<path d='M 239.1,193.5 L 242.7,192.3 L 242.7,188.5' style='fill:none;stroke:#000000;stroke-width:2.0px;stroke-linecap:butt;stroke-linejoin:miter;stroke-miterlimit:10;stroke-opacity:1;' />
<path d='M 242.8,119.6 L 242.8,115.8 L 239.2,114.6' style='fill:none;stroke:#000000;stroke-width:2.0px;stroke-linecap:butt;stroke-linejoin:miter;stroke-miterlimit:10;stroke-opacity:1;' />
<path d='M 212.7,150.9 L 215.0,154.0 L 212.7,157.1' style='fill:none;stroke:#000000;stroke-width:2.0px;stroke-linecap:butt;stroke-linejoin:miter;stroke-miterlimit:10;stroke-opacity:1;' />
<path class='atom-1' d='M12.8,101.567 C15.1206,103.256 17.3729,100.162 15.0522,98.4731 C12.7316,96.784 14.9838,93.6897 17.3044,95.3788 C19.6251,97.0679 21.8773,93.9736 19.5566,92.2845 C17.236,90.5954 19.4882,87.5011 21.8088,89.1902 C24.1295,90.8793 26.3817,87.785 24.061,86.0959 C21.7404,84.4068 23.9926,81.3125 26.3133,83.0016 C28.6339,84.6907 30.8861,81.5964 28.5655,79.9073 C26.2448,78.2182 28.497,75.1239 30.8177,76.813 C33.1383,78.5021 35.3905,75.4078 33.0699,73.7187 C30.7492,72.0296 33.0014,68.9353 35.3221,70.6244 C37.6427,72.3135 39.895,69.2192 37.5743,67.5301 C35.2537,65.841 37.5059,62.7467 39.8265,64.4358 C42.1472,66.1249 44.3994,63.0306 42.0787,61.3415 C39.7581,59.6524 42.0103,56.5581 44.3309,58.2472 C46.6516,59.9363 48.9038,56.842 46.5831,55.1529 C44.2625,53.4638 46.5147,50.3695 48.8354,52.0586 C51.156,53.7477 53.4082,50.6534 51.0876,48.9643 C48.7669,47.2752 51.0191,44.1809 53.3398,45.87 C55.6604,47.5591 57.9126,44.4648 55.592,42.7757 C53.2713,41.0866 55.5235,37.9923 57.8442,39.6814' style='fill:none;stroke:#7F7F7F;stroke-width:2.0px;stroke-linecap:butt;stroke-linejoin:miter;stroke-opacity:1' />
</svg>

<svg height="256" viewBox="0 0 256 256" width="256" xmlns="http://www.w3.org/2000/svg"><path d="m0 0h256v256h-256z" fill="#fff"/><g fill="none" stroke-width="2"><path d="m35.3 70.6 61.9 45.1" stroke="#000"/><path d="m97.2 115.7-.1 76.5" stroke="#000"/><path d="m97.1 192.2 72.8 23.7" stroke="#000"/><path d="m169.9 215.9 72.8-23.6" stroke="#000"/><path d="m242.7 192.3.1-76.5" stroke="#000"/><path d="m242.8 115.8-72.8-23.7" stroke="#000"/><path d="m170 92.1 45 61.9" stroke="#000"/><path d="m170 92.1-72.8 23.6" stroke="#000"/><path d="m215 154-45.1 61.9" stroke="#000"/><path d="m97.1 188.4v3.8l3.7 1.2" stroke="#000" stroke-miterlimit="10"/><path d="m239.1 193.5 3.6-1.2v-3.8" stroke="#000" stroke-miterlimit="10"/><path d="m242.8 119.6v-3.8l-3.6-1.2" stroke="#000" stroke-miterlimit="10"/><path d="m212.7 150.9 2.3 3.1-2.3 3.1" stroke="#000" stroke-miterlimit="10"/><path d="m12.8 101.567c2.321 1.689 4.573-1.405 2.252-3.094-2.32-1.689-.068-4.783 2.252-3.094 2.321 1.689 4.573-1.405 2.253-3.094-2.321-1.69-.069-4.784 2.252-3.095s4.573-1.405 2.252-3.094-.068-4.783 2.252-3.094c2.321 1.689 4.573-1.406 2.253-3.095-2.321-1.689-.069-4.783 2.252-3.094 2.32 1.689 4.573-1.405 2.252-3.094s-.069-4.784 2.252-3.095c2.321 1.69 4.573-1.405 2.252-3.094-2.32-1.689-.068-4.783 2.253-3.094 2.32 1.689 4.572-1.405 2.252-3.094-2.321-1.69-.069-4.784 2.252-3.095s4.573-1.405 2.252-3.094c-2.32-1.689-.068-4.783 2.252-3.094 2.321 1.689 4.573-1.406 2.253-3.095-2.321-1.689-.069-4.783 2.252-3.094 2.32 1.689 4.573-1.405 2.252-3.094s-.068-4.784 2.252-3.095" stroke="#7f7f7f"/></g></svg>
